images/logo.svg

<svg xmlns="http://www.w3.org/2000/svg" fill="none" viewBox="0 0 79 16">
  <path fill="#fff" d="m3.56818 3.65909 2.38637 8.20451h.0909l2.38637-8.20451H12L8.15909 15.2955H3.84091L0 3.65909h3.56818ZM13.1207 15.2955V3.65909h8.3864v2.54546h-5.2273v2h4.7955V10.75h-4.7955v2h5.2046v2.5455h-8.3637Zm2.4319-12.65914c-.3864 0-.7141-.12878-.983-.38636-.2689-.25758-.4034-.56818-.4034-.93182 0-.363635.1345-.674241.4034-.931816C14.8385.128788 15.1662 0 15.5526 0c.375 0 .695.128788.9602.386364.2689.257575.4034.568181.4034.931816 0 .36364-.1345.67424-.4034.93182-.2652.25758-.5852.38636-.9602.38636Zm3.6136 0c-.3864 0-.714-.12878-.983-.38636-.2689-.25758-.4034-.56818-.4034-.93182 0-.363635.1345-.674241.4034-.931816C18.4522.128788 18.7798 0 19.1662 0c.375 0 .6951.128788.9602.386364.269.257575.4034.568181.4034.931816 0 .36364-.1344.67424-.4034.93182-.2651.25758-.5852.38636-.9602.38636ZM23.0739 15.2955V3.65909h5.0227c.8636 0 1.6193.1572 2.267.47159.6478.3144 1.1516.76705 1.5114 1.35796.3598.59091.5398 1.29924.5398 2.125 0 .83333-.1856 1.53598-.5568 2.10795-.3675.57201-.8845 1.00381-1.5512 1.29541-.6629.2917-1.4375.4375-2.3238.4375h-3V9h2.3636c.3712 0 .6875-.04545.9489-.13636.2651-.0947.4678-.24432.6079-.44887.1439-.20454.2159-.47159.2159-.80113 0-.33334-.072-.60417-.2159-.8125-.1401-.21212-.3428-.36743-.6079-.46591-.2614-.10228-.5777-.15341-.9489-.15341H26.233v9.11368h-3.1591Zm6.8181-5.34095 2.9091 5.34095h-3.4318l-2.8409-5.34095h3.3636ZM40.0341 7.29545c-.0303-.37878-.1724-.67424-.4261-.88636-.25-.21212-.6307-.31818-1.1421-.31818-.3257 0-.5928.03977-.8011.11932-.2046.07575-.3561.17992-.4546.3125-.0985.13257-.1496.28409-.1534.45454-.0076.14015.0171.26705.0739.38068.0606.10985.1553.21023.2841.30114.1288.08712.2935.16667.4943.23864.2007.07197.4394.13636.7159.19318l.9545.20454c.644.13637 1.1951.31629 1.6535.53978.4583.22348.8333.48674 1.125.78977.2916.29924.5056.6364.642 1.0114.1402.375.2121.7841.2159 1.2272-.0038.7652-.1951 1.4129-.5739 1.9432-.3787.5303-.9204.9337-1.625 1.2102-.7007.2766-1.5435.4148-2.5284.4148-1.0113 0-1.8939-.1496-2.6477-.4488-.75-.2993-1.3333-.7595-1.75-1.3807-.4129-.625-.6212-1.4243-.625-2.3978h3c.0189.3561.108.6553.2671.8978.159.2424.3825.4261.6704.5511.2917.125.6383.1875 1.0398.1875.3371 0 .6193-.0417.8466-.125.2272-.0833.3996-.1989.517-.3466.1174-.1477.178-.3163.1818-.5057-.0038-.178-.0625-.3333-.1761-.4659-.1098-.1363-.2917-.2575-.5455-.3636-.2537-.1099-.5965-.2121-1.0284-.3068l-1.1591-.25c-1.0303-.2235-1.8428-.59662-2.4375-1.11935-.5909-.52651-.8844-1.24431-.8806-2.1534-.0038-.73864.1931-1.38447.5909-1.9375.4015-.55682.9564-.99053 1.6647-1.30114C36.7292 3.6553 37.5455 3.5 38.4659 3.5c.9394 0 1.7519.1572 2.4375.47159s1.214.75758 1.5852 1.32955c.375.56818.5644 1.23295.5682 1.99431h-3.0227ZM44.0994 6.20455V3.65909h10.1137v2.54546h-3.5v9.09095h-3.1137V6.20455h-3.5ZM55.402 15.2955V3.65909h3.1591v4.70455h.1591l3.5-4.70455h3.6818l-3.9318 5.18182 4.0227 6.45459h-3.7727l-2.6137-4.3637-1.0454 1.3637v3H55.402ZM69.8622 15.2955h-3.4091L70.294 3.65909h4.3182l3.8409 11.63641H75.044l-2.5454-8.43186h-.0909l-2.5455 8.43186Zm-.6363-4.591h6.409v2.3637h-6.409v-2.3637Z"/>
</svg>

<svg width="79" height="16" viewBox="0 0 79 16" fill="none" xmlns="http://www.w3.org/2000/svg">
<path d="M3.56818 3.65909L5.95455 11.8636H6.04545L8.43182 3.65909H12L8.15909 15.2955H3.84091L0 3.65909H3.56818Z" fill="white"/>
<path d="M13.1207 15.2955V3.65909H21.5071V6.20455H16.2798V8.20455H21.0753V10.75H16.2798V12.75H21.4844V15.2955H13.1207ZM15.5526 2.63636C15.1662 2.63636 14.8385 2.50758 14.5696 2.25C14.3007 1.99242 14.1662 1.68182 14.1662 1.31818C14.1662 0.954545 14.3007 0.643939 14.5696 0.386364C14.8385 0.128788 15.1662 0 15.5526 0C15.9276 0 16.2476 0.128788 16.5128 0.386364C16.7817 0.643939 16.9162 0.954545 16.9162 1.31818C16.9162 1.68182 16.7817 1.99242 16.5128 2.25C16.2476 2.50758 15.9276 2.63636 15.5526 2.63636ZM19.1662 2.63636C18.7798 2.63636 18.4522 2.50758 18.1832 2.25C17.9143 1.99242 17.7798 1.68182 17.7798 1.31818C17.7798 0.954545 17.9143 0.643939 18.1832 0.386364C18.4522 0.128788 18.7798 0 19.1662 0C19.5412 0 19.8613 0.128788 20.1264 0.386364C20.3954 0.643939 20.5298 0.954545 20.5298 1.31818C20.5298 1.68182 20.3954 1.99242 20.1264 2.25C19.8613 2.50758 19.5412 2.63636 19.1662 2.63636Z" fill="white"/>
<path d="M23.0739 15.2955V3.65909H28.0966C28.9602 3.65909 29.7159 3.81629 30.3636 4.13068C31.0114 4.44508 31.5152 4.89773 31.875 5.48864C32.2348 6.07955 32.4148 6.78788 32.4148 7.61364C32.4148 8.44697 32.2292 9.14962 31.858 9.72159C31.4905 10.2936 30.9735 10.7254 30.3068 11.017C29.6439 11.3087 28.8693 11.4545 27.983 11.4545H24.983V9H27.3466C27.7178 9 28.0341 8.95455 28.2955 8.86364C28.5606 8.76894 28.7633 8.61932 28.9034 8.41477C29.0473 8.21023 29.1193 7.94318 29.1193 7.61364C29.1193 7.2803 29.0473 7.00947 28.9034 6.80114C28.7633 6.58902 28.5606 6.43371 28.2955 6.33523C28.0341 6.23295 27.7178 6.18182 27.3466 6.18182H26.233V15.2955H23.0739ZM29.892 9.95455L32.8011 15.2955H29.3693L26.5284 9.95455H29.892Z" fill="white"/>
<path d="M40.0341 7.29545C40.0038 6.91667 39.8617 6.62121 39.608 6.40909C39.358 6.19697 38.9773 6.09091 38.4659 6.09091C38.1402 6.09091 37.8731 6.13068 37.6648 6.21023C37.4602 6.28598 37.3087 6.39015 37.2102 6.52273C37.1117 6.6553 37.0606 6.80682 37.0568 6.97727C37.0492 7.11742 37.0739 7.24432 37.1307 7.35795C37.1913 7.4678 37.286 7.56818 37.4148 7.65909C37.5436 7.74621 37.7083 7.82576 37.9091 7.89773C38.1098 7.9697 38.3485 8.03409 38.625 8.09091L39.5795 8.29545C40.2235 8.43182 40.7746 8.61174 41.233 8.83523C41.6913 9.05871 42.0663 9.32197 42.358 9.625C42.6496 9.92424 42.8636 10.2614 43 10.6364C43.1402 11.0114 43.2121 11.4205 43.2159 11.8636C43.2121 12.6288 43.0208 13.2765 42.642 13.8068C42.2633 14.3371 41.7216 14.7405 41.017 15.017C40.3163 15.2936 39.4735 15.4318 38.4886 15.4318C37.4773 15.4318 36.5947 15.2822 35.8409 14.983C35.0909 14.6837 34.5076 14.2235 34.0909 13.6023C33.678 12.9773 33.4697 12.178 33.4659 11.2045H36.4659C36.4848 11.5606 36.5739 11.8598 36.733 12.1023C36.892 12.3447 37.1155 12.5284 37.4034 12.6534C37.6951 12.7784 38.0417 12.8409 38.4432 12.8409C38.7803 12.8409 39.0625 12.7992 39.2898 12.7159C39.517 12.6326 39.6894 12.517 39.8068 12.3693C39.9242 12.2216 39.9848 12.053 39.9886 11.8636C39.9848 11.6856 39.9261 11.5303 39.8125 11.3977C39.7027 11.2614 39.5208 11.1402 39.267 11.0341C39.0133 10.9242 38.6705 10.822 38.2386 10.7273L37.0795 10.4773C36.0492 10.2538 35.2367 9.88068 34.642 9.35795C34.0511 8.83144 33.7576 8.11364 33.7614 7.20455C33.7576 6.46591 33.9545 5.82008 34.3523 5.26705C34.7538 4.71023 35.3087 4.27652 36.017 3.96591C36.7292 3.6553 37.5455 3.5 38.4659 3.5C39.4053 3.5 40.2178 3.6572 40.9034 3.97159C41.589 4.28598 42.1174 4.72917 42.4886 5.30114C42.8636 5.86932 43.053 6.53409 43.0568 7.29545H40.0341Z" fill="white"/>
<path d="M44.0994 6.20455V3.65909H54.2131V6.20455H50.7131V15.2955H47.5994V6.20455H44.0994Z" fill="white"/>
<path d="M55.402 15.2955V3.65909H58.5611V8.36364H58.7202L62.2202 3.65909H65.902L61.9702 8.84091L65.9929 15.2955H62.2202L59.6065 10.9318L58.5611 12.2955V15.2955H55.402Z" fill="white"/>
<path d="M69.8622 15.2955H66.4531L70.294 3.65909H74.6122L78.4531 15.2955H75.044L72.4986 6.86364H72.4077L69.8622 15.2955ZM69.2259 10.7045H75.6349V13.0682H69.2259V10.7045Z" fill="white"/>
</svg>
